!!!COM: Clara Schumann
!!!CNT: Deutsch
!!!TXO: Deutsch
!!!OTL: "Loreley"
!!!LYR: Heine, Heinrich
!!!OPS: Op. 
!!!ONM: No. 
!!!ENC: Leigh VanHandel
!!!YOR: Clara Schumann: Seven Songs. Kristin Norderval, Editor
!!!YOR: Hildegard Publishing Company
!!!ODT: 1843/
!!NB: Vocal melody and text encoded.
**kern	**silbe
*staff1	*
*clefG2	*
*k[b-e-]	*
*M12/8	*
*MM[schnell]	*
=0	=0
4.r	.
4.r	.
4.r	.
4r	.
{8d	{Ich
=1	=1
4.g	weiss
4.g	nicht,
8r	.
4a	was
8a	soll
8a	es
8a	be-
=2	=2
4.b-	-deu-
4.b-}	-ten}
4.r	.
{4.cc	{dass
=3	=3
[4.cc#	ich
4cc#]	|
8cc#	so
4.cc#	trau-
4.cc#	-rig
=4	=4
2.dd}	bin;}
4r	.
8r	.
4r	.
8r	.
=5	=5
1.r	.
=6	=6
1.r	.
=7	=7
1.r	.
=8	=8
2.r	.
4.r	.
{4.d	{Ein
=9	=9
4.dd	Ma2r-
4dd	-chen
8dd	aus
4.cc	al-
4.b-	-ten
=10	=10
4.a	Zei-
4.a}	-ten,}
4.r	.
{4.a	{das
=11	=11
4.b-	kommt
8.b-	mir
8.b-	nicht
4.a	aus
4.g	dem
=12	=12
2.a}	Sinn.}
4.r	.
4r	.
{8d	{Die
=13	=13
4.g	Luft
4.g	ist
[4.a	ku2hl
8a]	|
8a	und
8a	es
=14	=14
4.b-	dun-
4.b-}	-kelt}
4.r	.
{4.b-	{und
=15	=15
[4.b-	ru-
4b-]	|
8b-	-hig
4.a	fliesst
4.g	der
=16	=16
[2.f	Rhein;
4.f]}	|}
{4.f	{Der
=17	=17
4.f	Gip-
8.ee-	-fel
8.ee-	des
4.dd	Ber-
4.b-	-ges
=18	=18
4.dd	fun-
4.cc	|
8b-}	-kelt}
8r	.
8r	.
{4.a	{im
=19	=19
[4.b-	A-
4b-]	|
8b-	-bend-
4.dd	-son-
4.dd	-nen-
=20	=20
1.ff}	-schein.}
=21	=21
1.r	.
=22	=22
1.r	.
=23	=23
1.r	.
=24	=24
2.r	.
4.r	.
{4.f	{Die
=25	=25
4.g	scho2n-
4.a	-ste
4.b-	Jung-
4.cc	-frau
=26	=26
4.b-	sit-
4.a}	-zet}
4.r	.
{4.a	{dort
=27	=27
4.b-	o-
4.cc	-ben
4.dd	wun-
4.ee-	-der-
=28	=28
[2.cc	-bar;
4.cc]}	|}
{4.f	{Ihr
=29	=29
4.f	gold'-
8.f	-nes
8.f	Ge-
4.f	-schmei-
4.f	-de
=30	=30
2.f	blit-
8f}	-zet,}
8r	.
8r	.
{4.f	{sie
=31	=31
4.f	ka2mmt
4.f#	ihr
4.g	gold'-
4.a	-nes
=32	=32
[2.dd	Haar.
4dd]}	|}
8r	.
{4.d	{Sie
=33	=33
4.en	ka2mmt
8.f#	es
8.f#	mit
4.g	gold'-
4.a	-nem
=34	=34
4.g	Kam-
4.f#}	-me}
4.r	.
{4.f#	{und
=35	=35
4.g	singt
4.a	ein
4.b-	Lied
4.cc	da-
=36	=36
2.a}	bei;}
4r	.
8r	.
4r	.
8r	.
=37	=37
1.r	.
=38	=38
1.r	.
=39	=39
1.r	.
=40	=40
2.r	.
4.r	.
{4.d	{Das
=41	=41
2.dd	hat
4.cc	ei-
4.b-	-ne
=42	=42
4.a	wun-
4.d	-der-
4.d	-sa-
8.d	-me
8.d	ge-
=43	=43
4.b-	-wal-
8.b-	-ti-
8.b-	-ge
4.a	Me-
4.g	-lo-
=44	=44
2.a}	-dei.}
4.r	.
4r	.
{8d	{Den
=45	=45
4.e-	Schif-
4e-	-fer
8e-	im
4.e-	klei-
4.e-	-nen
=46	=46
4.d	Schif-
4d}	-fe}
8r	.
4.r	.
{4.d	{er-
=47	=47
4.g	-greift
4g	es
8g	mit
4.g	wil-
4.g	-dem
=48	=48
1.gg}	Weh;}
=49	=49
1.r	.
=50	=50
2.r	.
4.r	.
{4.cc	{er
=51	=51
4.cc	schaut
4cc	nicht
8cc	die
4.cc	Fel-
4.cc	-sen-
=52	=52
4.cc	rif-
4.e-}	-fe,}
4.r	.
{4.e-	{er
=53	=53
4.cc	schaut
4cc	nur
8cc	hin-
4.cc	-auf
4dd	in
8ee-	die
=54	=54
[2.dd	Ho2h'.
4.dd]}	|}
{4.dd	{Ich
=55	=55
4.dd	glau-
4dd	-be
8dd	die
4.dd	Wel-
8.dd	-len
8.dd	ver-
=56	=56
4.dd	-schlin-
4dd}	-gen}
8r	.
4.r	.
8r	.
8r	.
{8g	{am
=57	=57
4.g	En-
4.cc	-de
4.bn	Schif-
8.cc	-fer
8.cc	und
=58	=58
[2.bn	Kahn;
4b]}	|}
8r	.
{4.b	{und
=59	=59
4.cc	das
4cc	hat
8cc	mit
4.cc#	ih-
4.cc#	-rem
=60	=60
4.dd	Sin-
4.dd}	-gen}
4.r	.
{4.ee-	{die
=61	=61
[4.dd	Lo-
4dd]	|
8dd	-re-
4.gg	-ley
4gg	|
8gg	ge-
=62	=62
[2.ff#	-tan,
4.ff#]}	|}
{4.ffn	{und
=63	=63
4.een	das
8.ee-	hat
8.ee-	mit
4.dd	ih-
4.dd	-rem
=64	=64
4.cc#	Sin-
4.ccn	|
4.b-}	-gen}
{4.b-	{die
=65	=65
2.b-	Lo-
4.a	|
4.g	-re-
=66	=66
[2.cc	-ley
4.cc]	|
4.f#	ge-
=67	=67
1.g}	-tan.}
==	==
*-	*-

